src/main/resources/icons/JavaUltimateIcons/icons/cdi/gutter/beanFactory.svg

<svg xmlns="http://www.w3.org/2000/svg" width="12" height="12" viewBox="0 0 12 12">
  <g fill="none" fill-rule="evenodd">
    <path fill="#40B6E0" fill-opacity=".7" d="M1.1073387,2.0082025 L6.5,7.415 L6.5,8 L4,7 L4.00027101,11.0899901 C3.34903644,10.7346491 2.72371903,10.2600793 2.14787638,9.68274982 C-0.115335243,7.41369441 -0.794973308,4.37701519 1.1073387,2.0082025 Z M9.65678081,2.15445681 C10.9506084,3.45162512 11.7268997,4.99966468 11.7991253,6.53022051 L8.8,5.5 L8.8,7 L7.385,6.507 L2.00115551,1.11038698 C4.36386749,-0.796836942 7.39272597,-0.116289399 9.65678081,2.15445681 Z"/>
    <path fill="#9AA7B0" d="M9.66818576,7 L12,7.71201869 L12,12 L5,12 L5,8.42857143 L7.33333333,9.14285714 L7.33333333,7.71201869 L9.66818576,8.42857143 L9.66818576,7 Z M7,10 L6,10 L6,11 L7,11 L7,10 Z M9,9.5 L8,9.5 L8,10.5 L9,10.5 L9,9.5 Z M11,9 L10,9 L10,10 L11,10 L11,9 Z"/>
  </g>
</svg>

<svg xmlns="http://www.w3.org/2000/svg" width="12" height="12" viewBox="0 0 12 12"><rect id="frame" width="12" height="12" fill="none"/><g fill="none" fill-rule="evenodd"><path fill="#40B6E0" fill-opacity=".7" d="M1.107 2.008L6.5 7.415V8L4 7v4.09a8.15 8.15 0 0 1-1.852-1.407c-2.263-2.27-2.943-5.306-1.04-7.675zm8.55.146C10.95 3.452 11.727 5 11.799 6.53L8.8 5.5V7l-1.415-.493L2.001 1.11C4.364-.797 7.393-.116 9.657 2.154z"/><path fill="#9AA7B0" d="M9.668 7L12 7.712V12H5V8.429l2.333.714V7.712l2.335.717V7zM7 10H6v1h1v-1zm2-.5H8v1h1v-1zm2-.5h-1v1h1V9z"/></g></svg>
